src/status/24/notification-new-symbolic.svg

<?xml version="1.0" encoding="UTF-8" standalone="no"?>
<svg
   xmlns:dc="http://purl.org/dc/elements/1.1/"
   xmlns:cc="http://creativecommons.org/ns#"
   xmlns:rdf="http://www.w3.org/1999/02/22-rdf-syntax-ns#"
   xmlns:svg="http://www.w3.org/2000/svg"
   xmlns="http://www.w3.org/2000/svg"
   height="24"
   width="24"
   version="1.1"
   id="svg8">
  <metadata
     id="metadata14">
    <rdf:RDF>
      <cc:Work
         rdf:about="">
        <dc:format>image/svg+xml</dc:format>
        <dc:type
           rdf:resource="http://purl.org/dc/dcmitype/StillImage" />
      </cc:Work>
    </rdf:RDF>
  </metadata>
  <defs
     id="defs12" />
  <path
     id="path2-3-7-9-8-3-7-2"
     d="M 11.544922 5.7421875 C 10.327492 6.0735423 9.2714234 6.9714055 8.7734375 8.1699219 C 8.7734375 8.1699219 6.8591806 12.790042 5.0878906 12.728516 C 5.0688906 12.732516 5.0554563 12.747373 5.0351562 12.751953 C 4.9580563 12.773473 4.8843294 12.808165 4.8183594 12.853516 C 4.7913594 12.871576 4.7638344 12.881834 4.7402344 12.902344 C 4.6503344 12.976574 4.5795531 13.070765 4.5332031 13.177734 C 4.3740131 13.562068 4.5560531 13.99939 4.9394531 14.158203 L 14.640625 18.175781 C 15.024965 18.334978 15.459941 18.155821 15.619141 17.771484 C 15.662041 17.663073 15.678969 17.545739 15.667969 17.429688 C 15.665969 17.398457 15.654238 17.370374 15.648438 17.339844 C 15.633637 17.260934 15.606106 17.185025 15.566406 17.115234 C 15.556206 17.098024 15.558375 17.077207 15.546875 17.060547 C 14.774539 16.340829 15.143438 14.418039 15.566406 12.974609 A 5 5 0 0 1 11 8 A 5 5 0 0 1 11.544922 5.7421875 z M 10.40625 17.503906 C 10.47982 18.441959 11.208172 19.225326 12.177734 19.332031 C 12.74742 19.394351 13.285133 19.207804 13.689453 18.863281 L 10.40625 17.503906 z "
     style="color:#bebebe;overflow:visible;isolation:auto;mix-blend-mode:normal;fill:#ffffff;marker:none" />
  <path
     id="path4"
     style="color:#bebebe;overflow:visible;isolation:auto;mix-blend-mode:normal;fill:#d33636;marker:none"
     overflow="visible"
     d="m 20,8 a 4,4 0 0 1 -8,0 4,4 0 1 1 8,0 z"
     class="error" />
</svg>

<?xml version="1.0" encoding="UTF-8"?>
<svg id="svg8" width="24" height="24" version="1.1" xmlns="http://www.w3.org/2000/svg" xmlns:cc="http://creativecommons.org/ns#" xmlns:dc="http://purl.org/dc/elements/1.1/" xmlns:rdf="http://www.w3.org/1999/02/22-rdf-syntax-ns#">
 <metadata id="metadata14">
  <rdf:RDF>
   <cc:Work rdf:about="">
    <dc:format>image/svg+xml</dc:format>
    <dc:type rdf:resource="http://purl.org/dc/dcmitype/StillImage"/>
   </cc:Work>
  </rdf:RDF>
 </metadata>
 <path id="path2-3-7-9-8-3-7-2" d="m11.545 5.7422c-1.2174 0.33135-2.2735 1.2292-2.7715 2.4277 0 0-1.9143 4.6201-3.6855 4.5586-0.019 4e-3 -0.032434 0.018857-0.052734 0.023437-0.0771 0.02152-0.15083 0.056212-0.2168 0.10156-0.027 0.01806-0.054525 0.028318-0.078125 0.048828-0.0899 0.07423-0.16068 0.16842-0.20703 0.27539-0.15919 0.38433 0.02285 0.82166 0.40625 0.98047l9.7012 4.0176c0.38434 0.1592 0.81932-0.01996 0.97852-0.4043 0.0429-0.10841 0.059828-0.22574 0.048828-0.3418-2e-3 -0.031231-0.013731-0.059314-0.019531-0.089844-0.014801-0.07891-0.042332-0.15482-0.082032-0.22461-0.0102-0.01721-0.008031-0.038027-0.019531-0.054687-0.77234-0.71972-0.40344-2.6425 0.019531-4.0859a5 5 0 0 1-4.5664-4.9746 5 5 0 0 1 0.54492-2.2578zm-1.1387 11.762c0.07357 0.93805 0.80192 1.7214 1.7715 1.8281 0.56969 0.06232 1.1074-0.12423 1.5117-0.46875l-3.2832-1.3594z" color="#bebebe" fill="#fff" style="isolation:auto;mix-blend-mode:normal"/>
 <path id="path4" class="error" d="m20 8a4 4 0 0 1-8 0 4 4 0 1 1 8 0z" color="#bebebe" fill="#d33636" overflow="visible" style="isolation:auto;mix-blend-mode:normal"/>
</svg>
